src/assets/logos/v2/aquafutures.svg

<svg width="495" height="54" viewBox="0 0 495 54" fill="none" xmlns="http://www.w3.org/2000/svg">
<path d="M18.8968 0.940317L0 43.6944H12.3594L15.6776 35.3984H33.9122L37.2304 43.6944H49.8486L30.8528 0.940317H18.9044H18.8968ZM19.3078 26.4881L24.7721 12.8459L30.2897 26.4881H19.3078ZM87.4899 45.4234C86.5691 45.4234 85.7547 45.2186 84.9328 44.8622C84.1185 44.5058 83.2966 43.8916 82.5355 43.0271C82.4822 43.0271 82.4822 42.974 82.4822 42.974C82.5355 42.974 82.6345 42.9209 82.741 42.9209C85.6025 41.7986 88.1064 40.2744 90.2525 38.2876C92.3454 36.2553 94.0349 33.9121 95.2602 31.2125C96.4322 28.5128 97.0487 25.563 97.0487 22.3098C97.0487 19.0566 96.4322 16.1522 95.2602 13.4526C94.0349 10.753 92.3454 8.36427 90.2525 6.37747C88.1064 4.39068 85.6025 2.86645 82.741 1.74414C79.8262 0.621823 76.6602 0.113748 73.1899 0.113748C69.7195 0.113748 66.5992 0.621823 63.692 1.74414C60.7772 2.86645 58.281 4.39068 56.1348 6.42297C53.9887 8.40977 52.3067 10.7454 51.1271 13.445C49.9551 16.1446 49.3387 19.0945 49.3387 22.3022C49.3387 25.5099 49.9551 28.5128 51.1271 31.1594C52.2991 33.859 53.9887 36.1946 56.1348 38.2345C58.281 40.2213 60.7848 41.7986 63.692 42.9134C65.2217 43.4745 66.858 43.884 68.5475 44.1342C70.0315 45.6585 71.409 46.9855 72.6343 48.1003C74.2706 49.5259 75.8535 50.6937 77.3832 51.5582C78.9129 52.4227 80.4959 53.0369 82.0789 53.4388C83.6619 53.7953 85.3971 54 87.2388 54C92.2465 54 96.28 52.2179 99.2405 48.6083L93.9817 42.3977C92.041 44.3845 89.8416 45.4006 87.4975 45.4006L87.4899 45.4234ZM81.4624 31.2276C80.3894 32.2969 79.1641 33.1083 77.7866 33.6694C76.3558 34.2837 74.8261 34.5339 73.1899 34.5339C71.5536 34.5339 70.0239 34.2761 68.6464 33.6694C67.2156 33.1083 65.9904 32.2969 64.9706 31.2276C63.8975 30.1584 63.0832 28.8389 62.52 27.3602C61.9035 25.836 61.5991 24.1525 61.5991 22.325C61.5991 20.4974 61.9035 18.8139 62.52 17.2897C63.0832 15.811 63.8975 14.5446 64.9706 13.4754C65.9904 12.4061 67.2156 11.5416 68.6464 10.9805C70.0239 10.4193 71.5612 10.116 73.1899 10.116C74.8185 10.116 76.3558 10.4193 77.7866 10.9805C79.1641 11.5416 80.3894 12.4061 81.4624 13.4754C82.4822 14.5446 83.3042 15.8186 83.913 17.2897C84.4762 18.8139 84.7806 20.4974 84.7806 22.325C84.7806 24.1525 84.4762 25.836 83.913 27.3602C83.2966 28.8389 82.4822 30.1584 81.4624 31.2276ZM131.425 0.963067H143.374V24.653C143.374 31.0077 141.6 35.9141 138.039 39.372C134.477 42.8299 129.538 44.5589 123.206 44.5589C116.874 44.5589 111.927 42.8299 108.373 39.372C104.819 35.9141 103.038 31.0001 103.038 24.653V0.963067H115.177V24.289C115.177 27.9517 115.907 30.5755 117.353 32.168C118.799 33.7528 120.793 34.5491 123.328 34.5491C125.862 34.5491 127.841 33.7528 129.271 32.168C130.695 30.5755 131.418 27.9517 131.418 24.289V0.963067H131.425ZM201.83 24.4482C201.685 24.5241 201.533 24.5923 201.388 24.6682C197.682 26.4881 194.425 28.1185 187.91 28.2929L175.749 0.940317H163.8L144.85 43.6868H157.209L162.552 30.439C166.167 33.0097 171.509 35.4742 179.188 36.4828L182.08 43.6868H194.744L191.639 36.7027C195.939 36.2401 199.135 35.2088 201.822 34.0258V43.6944H213.961V29.1043C217.469 28.3839 222.043 28.1337 228.809 28.7858V20.0803C222.515 19.5268 217.781 19.7315 213.961 20.323V10.2904H235.475V0.963067H201.83V24.4558V24.4482ZM165.908 22.1354L169.675 12.8005L175.368 26.981C170.627 25.6995 167.674 23.7506 165.908 22.1354ZM269.578 0.963067H281.526V24.653C281.526 31.0077 279.753 35.9141 276.191 39.372C272.63 42.8299 267.691 44.5589 261.359 44.5589C255.027 44.5589 250.08 42.8299 246.526 39.372C242.972 35.9141 241.191 31.0001 241.191 24.653V0.963067H253.33V24.289C253.33 27.9517 254.06 30.5755 255.506 32.168C256.952 33.7528 258.946 34.5491 261.48 34.5491C264.015 34.5491 265.993 33.7528 267.424 32.168C268.847 30.5755 269.57 27.9517 269.57 24.289V0.963067H269.578ZM284.944 10.3966H298.056V43.3987H310.134V10.3966H323.186V0.856902H284.944V10.3966ZM354.907 24.0767C354.907 27.7242 354.191 30.3328 352.776 31.9177C351.352 33.495 349.381 34.2912 346.862 34.2912C344.343 34.2912 342.357 33.5026 340.918 31.9177C339.472 30.3404 338.749 27.7242 338.749 24.0767V0.856902H326.672V24.4331C326.672 30.7499 328.445 35.6411 331.976 39.0763C335.515 42.519 340.431 44.2404 346.74 44.2404C353.05 44.2404 357.966 42.519 361.505 39.0763C365.044 35.6335 366.809 30.7499 366.809 24.4331V0.856902H354.914V24.0691L354.907 24.0767ZM411.14 24.8957C412.685 22.5676 413.461 19.7997 413.461 16.5996C413.461 13.3995 412.685 10.5558 411.14 8.18228C409.595 5.81632 407.411 4.00393 404.58 2.74512C401.757 1.48631 398.393 0.864485 394.481 0.864485H374.968V43.4063H387.046V32.0997H393.644L401.384 43.4063H414.314L405.09 30.0067C407.67 28.7858 409.694 27.0872 411.14 24.8957ZM399.397 11.9815C400.63 13.0734 401.254 14.6128 401.254 16.5996C401.254 18.5864 400.63 20.0652 399.397 21.1571C398.157 22.2491 396.277 22.8027 393.75 22.8027H387.038V10.3359H393.75C396.269 10.3359 398.149 10.8819 399.397 11.9739V11.9815ZM432.061 26.3213H451.027V17.3276H432.061V10.1539H453.591V0.856902H420.105V43.3987H454.383V34.1017H432.061V26.3213ZM493.691 24.9563C492.816 23.4776 491.667 22.2795 490.243 21.3695C488.82 20.4595 487.245 19.7315 485.517 19.1779C483.782 18.6319 482.055 18.1769 480.327 17.8129C478.599 17.449 477.009 17.0925 475.57 16.7437C474.125 16.4025 472.968 15.9551 472.092 15.4091C471.217 14.8631 470.783 14.1199 470.783 13.1872C470.783 12.4592 471.004 11.8071 471.453 11.2383C471.902 10.6696 472.633 10.2146 473.645 9.87333C474.665 9.53209 476.004 9.35767 477.671 9.35767C479.543 9.35767 481.476 9.63067 483.47 10.1767C485.464 10.7227 487.473 11.5416 489.505 12.6412L493.227 3.70819C491.111 2.49487 488.706 1.56972 485.997 0.940317C483.287 0.310911 480.54 0 477.732 0C473.546 0 470.045 0.629406 467.237 1.88063C464.436 3.13945 462.328 4.79259 460.92 6.8628C459.52 8.92543 458.82 11.2383 458.82 13.7863C458.82 16.0536 459.269 17.9343 460.159 19.413C461.05 20.8917 462.207 22.0899 463.637 22.9999C465.06 23.9098 466.636 24.653 468.371 25.2217C470.099 25.7905 471.826 26.2531 473.554 26.617C475.281 26.981 476.857 27.345 478.28 27.709C479.703 28.073 480.867 28.5432 481.758 29.1119C482.648 29.6807 483.097 30.4466 483.097 31.4248C483.097 32.1149 482.861 32.7139 482.397 33.2144C481.933 33.7149 481.187 34.1244 480.167 34.4277C479.147 34.7311 477.808 34.8827 476.141 34.8827C473.668 34.8827 471.172 34.4884 468.668 33.6998C466.164 32.9111 463.965 31.9101 462.054 30.6892L458.089 39.5616C460.121 40.9417 462.754 42.064 465.989 42.9361C469.223 43.8082 472.587 44.2404 476.088 44.2404C480.319 44.2404 483.82 43.611 486.613 42.3598C489.399 41.1086 491.492 39.4327 492.892 37.3473C494.3 35.2619 495 32.9794 495 30.5072C495 28.2778 494.566 26.4275 493.691 24.9487V24.9563Z" fill="white"/>
</svg>

<svg xmlns="http://www.w3.org/2000/svg" width="495" height="54" fill="none" viewBox="0 0 495 54"><path fill="#fff" d="M18.897.94 0 43.694h12.36l3.318-8.296h18.234l3.318 8.296h12.62L30.853.94zm.41 25.548 5.465-13.642 5.518 13.642zM87.49 45.423c-.92 0-1.735-.204-2.557-.56-.815-.357-1.636-.971-2.398-1.836-.053 0-.053-.053-.053-.053.053 0 .153-.053.259-.053 2.862-1.122 5.365-2.647 7.511-4.633 2.093-2.033 3.783-4.376 5.008-7.075 1.172-2.7 1.789-5.65 1.789-8.903s-.617-6.158-1.789-8.857c-1.225-2.7-2.915-5.089-5.008-7.076-2.146-1.986-4.65-3.51-7.511-4.633C79.826.622 76.661.114 73.19.114s-6.59.508-9.498 1.63c-2.915 1.122-5.411 2.647-7.557 4.679a20.9 20.9 0 0 0-5.008 7.022c-1.172 2.7-1.788 5.65-1.788 8.857 0 3.208.616 6.21 1.788 8.857 1.172 2.7 2.862 5.036 5.008 7.075 2.146 1.987 4.65 3.565 7.557 4.68a24.6 24.6 0 0 0 4.855 1.22 95 95 0 0 0 4.087 3.966c1.637 1.426 3.22 2.594 4.75 3.458a19 19 0 0 0 4.695 1.88 23.5 23.5 0 0 0 5.16.562c5.007 0 9.041-1.782 12.001-5.392l-5.258-6.21c-1.941 1.986-4.14 3.003-6.484 3.003zm-6.028-14.195a11.1 11.1 0 0 1-3.675 2.441c-1.431.615-2.96.865-4.597.865-1.636 0-3.166-.258-4.544-.865q-2.146-.839-3.675-2.441c-1.074-1.07-1.888-2.39-2.451-3.868-.617-1.524-.92-3.207-.92-5.035s.303-3.511.92-5.035c.563-1.479 1.377-2.745 2.45-3.815a10.2 10.2 0 0 1 3.676-2.495 12 12 0 0 1 4.544-.864c1.629 0 3.166.303 4.597.864 1.377.562 2.602 1.426 3.675 2.495 1.02 1.07 1.842 2.344 2.451 3.815.563 1.524.868 3.207.868 5.035s-.305 3.511-.868 5.035c-.616 1.479-1.43 2.798-2.45 3.868M131.425.963h11.949v23.69c0 6.355-1.774 11.261-5.335 14.719s-8.501 5.187-14.833 5.187q-9.5 0-14.833-5.187c-3.554-3.458-5.335-8.372-5.335-14.719V.963h12.139V24.29c0 3.663.73 6.287 2.176 7.879q2.17 2.38 5.975 2.381 3.8-.002 5.943-2.381c1.424-1.592 2.147-4.216 2.147-7.879V.963zm70.405 23.485c-.145.076-.297.144-.442.22-3.706 1.82-6.963 3.45-13.478 3.625L175.749.94H163.8l-18.95 42.747h12.359l5.343-13.248c3.615 2.57 8.957 5.035 16.636 6.044l2.892 7.204h12.664l-3.105-6.984c4.3-.463 7.496-1.494 10.183-2.677v9.668h12.139v-14.59c3.508-.72 8.082-.97 14.848-.318V20.08c-6.294-.553-11.028-.348-14.848.243V10.29h21.514V.963H201.83v23.493zm-35.922-2.313 3.767-9.335 5.693 14.181c-4.741-1.282-7.694-3.23-9.46-4.846M269.578.963h11.948v23.69c0 6.355-1.773 11.261-5.335 14.719-3.561 3.458-8.5 5.187-14.832 5.187q-9.5 0-14.833-5.187c-3.554-3.458-5.335-8.372-5.335-14.719V.963h12.139V24.29c0 3.663.73 6.287 2.176 7.879q2.171 2.38 5.974 2.381c3.803.001 4.513-.796 5.944-2.381 1.423-1.592 2.146-4.216 2.146-7.879V.963zm15.366 9.434h13.112v33.002h12.078V10.397h13.052V.857h-38.242zm69.963 13.68c0 3.647-.716 6.256-2.131 7.84-1.424 1.578-3.395 2.374-5.914 2.374s-4.505-.788-5.944-2.373q-2.169-2.369-2.169-7.841V.857h-12.077v23.576c0 6.317 1.773 11.208 5.304 14.643 3.539 3.443 8.455 5.164 14.764 5.164 6.31 0 11.226-1.721 14.765-5.164s5.304-8.326 5.304-14.643V.857h-11.895v23.212zm56.233.819q2.32-3.494 2.321-8.296c0-3.2-.776-6.044-2.321-8.418q-2.315-3.549-6.56-5.437c-2.823-1.259-6.187-1.88-10.099-1.88h-19.513v42.541h12.078V32.1h6.598l7.74 11.306h12.93l-9.224-13.4c2.58-1.22 4.604-2.919 6.05-5.11m-11.743-12.914c1.233 1.091 1.857 2.63 1.857 4.618 0 1.986-.624 3.465-1.857 4.557-1.24 1.092-3.12 1.646-5.647 1.646h-6.712V10.336h6.712q3.777 0 5.647 1.638zm32.664 14.34h18.966v-8.994h-18.966v-7.174h21.53V.857h-33.486v42.542h34.278v-9.297h-22.322zm61.63-1.366a10.6 10.6 0 0 0-3.448-3.587c-1.423-.91-2.998-1.637-4.726-2.191a55 55 0 0 0-5.19-1.365c-1.728-.364-3.318-.72-4.757-1.07-1.445-.34-2.602-.788-3.478-1.334-.875-.546-1.309-1.29-1.309-2.222q-.002-1.094.67-1.949.674-.852 2.192-1.365c1.02-.34 2.359-.515 4.026-.515q2.808 0 5.799.819c1.994.546 4.003 1.365 6.035 2.464l3.722-8.933c-2.116-1.213-4.521-2.138-7.23-2.768S480.54 0 477.732 0c-4.186 0-7.687.63-10.495 1.88-2.801 1.26-4.909 2.913-6.317 4.983-1.4 2.062-2.1 4.375-2.1 6.923 0 2.268.449 4.148 1.339 5.627A10.8 10.8 0 0 0 463.637 23a20.7 20.7 0 0 0 4.734 2.222 49 49 0 0 0 5.183 1.395q2.591.546 4.726 1.092c1.423.364 2.587.834 3.478 1.403.89.569 1.339 1.335 1.339 2.313q-.002 1.037-.7 1.79c-.464.5-1.21.91-2.23 1.213s-2.359.455-4.026.455c-2.473 0-4.969-.395-7.473-1.183-2.504-.789-4.703-1.79-6.614-3.01l-3.965 8.872q3.048 2.068 7.9 3.374c3.234.872 6.598 1.304 10.099 1.304 4.231 0 7.732-.629 10.525-1.88 2.786-1.251 4.879-2.927 6.279-5.013C494.3 35.262 495 32.98 495 30.507q.002-3.343-1.309-5.558z"/></svg>
